images/logo2_dark.svg

<?xml version="1.0" encoding="UTF-8" standalone="no"?>
<svg width="150px" height="60px" viewBox="0 0 150 60" version="1.1" xmlns="http://www.w3.org/2000/svg" xmlns:xlink="http://www.w3.org/1999/xlink" xmlns:sketch="http://www.bohemiancoding.com/sketch/ns">
    <!-- Generator: Sketch 3.3.3 (12081) - http://www.bohemiancoding.com/sketch -->
    <title>logo2_dark</title>
    <desc>Created with Sketch.</desc>
    <defs></defs>
    <g id="Page-1" stroke="none" stroke-width="1" fill="none" fill-rule="evenodd" sketch:type="MSPage">
        <g id="logo2_dark" sketch:type="MSArtboardGroup" fill-opacity="0.3" fill="#000000">
            <path d="M134.974902,48.8547696 L129.927279,40.8335202 L129.960367,41.4821378 L129.994267,42.5986698 L129.994267,48.8547696 L128.8561,48.8547696 L128.8561,39.4363658 L130.342227,39.4363658 L135.443548,47.5120428 C135.389849,46.6379525 135.363361,46.0054917 135.363361,45.6132162 L135.363361,39.4363658 L136.514727,39.4363658 L136.514727,48.8547696 L134.974902,48.8547696 L134.974902,48.8547696 Z M116.118211,39.4363658 L123.275103,39.4363658 L123.275103,40.4794252 L117.396863,40.4794252 L117.396863,43.5013729 L122.873445,43.5013729 L122.873445,44.5305321 L117.396863,44.5305321 L117.396863,47.8124323 L123.549565,47.8124323 L123.549565,48.8547696 L116.118211,48.8547696 L116.118211,39.4363658 L116.118211,39.4363658 Z M106.164988,48.8547696 L102.315832,39.4363658 L103.661382,39.4363658 L106.272386,46.0679525 L106.834509,47.7323705 L107.397264,46.0679525 L109.99507,39.4363658 L111.34062,39.4363658 L107.490741,48.8547696 L106.164988,48.8547696 L106.164988,48.8547696 Z M97.2703789,46.1017102 L92.9717412,46.1017102 L91.8873635,48.8547696 L90.5616111,48.8547696 L94.411491,39.4363658 L95.86453,39.4363658 L99.6532978,48.8547696 L98.3482477,48.8547696 L97.2703789,46.1017102 L97.2703789,46.1017102 Z M95.6768545,41.9970784 C95.5518279,41.6900095 95.4268012,41.3417815 95.3016842,40.954019 L95.1214217,40.3993634 L95.0611232,40.5867458 C94.9492954,40.9569074 94.7837684,41.4314109 94.5652656,42.0102565 L93.3602006,45.105677 L96.8886093,45.105677 L95.6768545,41.9970784 L95.6768545,41.9970784 Z M78.9221115,39.4363658 L86.0790043,39.4363658 L86.0790043,40.4794252 L80.2007641,40.4794252 L80.2007641,43.5013729 L85.6772557,43.5013729 L85.6772557,44.5305321 L80.2007641,44.5305321 L80.2007641,47.8124323 L86.3533759,47.8124323 L86.3533759,48.8547696 L78.9221115,48.8547696 L78.9221115,39.4363658 L78.9221115,39.4363658 Z M71.8079789,44.490095 L66.7065672,44.490095 L66.7065672,48.8547696 L65.428005,48.8547696 L65.428005,39.4363658 L66.7065672,39.4363658 L66.7065672,43.4205891 L71.8079789,43.4205891 L71.8079789,39.4363658 L73.0865412,39.4363658 L73.0865412,48.8547696 L71.8079789,48.8547696 L71.8079789,44.490095 L71.8079789,44.490095 Z M58.9707368,48.8547696 L55.201044,44.3093919 L53.969491,45.2452209 L53.969491,48.8547696 L52.6908384,48.8547696 L52.6908384,39.4363658 L53.969491,39.4363658 L53.969491,44.1558575 L58.5153796,39.4363658 L60.021304,39.4363658 L56.0044508,43.5278195 L60.5569387,48.8547696 L58.9707368,48.8547696 L58.9707368,48.8547696 Z M39.9529486,39.4363658 L47.1098415,39.4363658 L47.1098415,40.4794252 L41.2316012,40.4794252 L41.2316012,43.5013729 L46.7081833,43.5013729 L46.7081833,44.5305321 L41.2316012,44.5305321 L41.2316012,47.8124323 L47.384213,47.8124323 L47.384213,48.8547696 L39.9529486,48.8547696 L39.9529486,39.4363658 L39.9529486,39.4363658 Z M27.2151492,39.4363658 L34.3719517,39.4363658 L34.3719517,40.4794252 L28.4938019,40.4794252 L28.4938019,43.5013729 L33.9702935,43.5013729 L33.9702935,44.5305321 L28.4938019,44.5305321 L28.4938019,47.8124323 L34.6464136,47.8124323 L34.6464136,48.8547696 L27.2151492,48.8547696 L27.2151492,39.4363658 L27.2151492,39.4363658 Z M17.2758489,48.9884466 C16.2892867,48.9884466 15.4395034,48.7931211 14.725143,48.4008456 C14.0107827,48.0085701 13.4656557,47.443715 13.0882254,46.70619 C12.7116087,45.9687553 12.5224867,45.1012542 12.5224867,44.1022423 C12.5224867,42.5743895 12.9330043,41.3910641 13.7547628,40.5528979 C14.5757981,39.7155439 15.7294241,39.2968219 17.2155505,39.2968219 C18.2602415,39.2968219 19.1084879,39.47238 19.7595666,39.8242185 C20.4113684,40.1768694 20.9138254,40.74019 21.2663046,41.5151734 L20.0479505,41.8765796 C19.7801783,41.3417815 19.4108842,40.9524846 18.9399777,40.7071544 C18.4691616,40.4618242 17.8828111,40.3391591 17.1823728,40.3391591 C16.0935653,40.3391591 15.2607777,40.6675297 14.6854563,41.3256247 C14.1094118,41.9823658 13.8217511,42.907905 13.8217511,44.1022423 C13.8217511,45.292247 14.1270402,46.2309644 14.7384322,46.920019 C15.3498241,47.6089834 16.1958105,47.9527886 17.2758489,47.9527886 C17.8923938,47.9527886 18.4669015,47.8587363 19.0003666,47.6721663 C19.5329276,47.4848741 19.9647802,47.2306983 20.2951108,46.9097292 L20.2951108,45.2121853 L17.4767232,45.2121853 L17.4767232,44.1426793 L21.4737783,44.1426793 L21.4737783,47.3915439 C20.973491,47.8991734 20.3613759,48.2920808 19.6359864,48.5712589 C18.9105969,48.8496247 18.1240954,48.9884466 17.2758489,48.9884466 Z M6.9749387,29.1371021 L142.578654,29.1371021 L142.578654,30.9423278 L6.9749387,30.9423278 L6.9749387,29.1371021 Z M142.64971,14.742323 C142.939541,14.8745558 143.517845,15.0362138 144.38372,15.2272067 C144.673641,15.2947221 144.962748,15.3623278 145.250409,15.4313777 C145.538793,15.5004276 145.813887,15.5826556 146.07732,15.678152 C146.340663,15.7743705 146.5871,15.8868361 146.817445,16.0160903 C147.046977,16.1453444 147.246315,16.3040238 147.416271,16.4905938 C147.586228,16.677886 147.718667,16.8990261 147.815037,17.1523895 C147.910682,17.4065653 147.958505,17.7055107 147.958505,18.0478717 C147.958505,18.9175392 147.618592,19.5903468 146.937319,20.0671069 C146.256859,20.543867 145.298232,20.7817957 144.062249,20.7817957 C141.763947,20.7817957 140.431595,19.9840665 140.065194,18.3886983 L141.304069,18.1418337 C141.446815,18.7075012 141.749934,19.1232447 142.214151,19.388342 C142.678368,19.6535297 143.310372,19.7857625 144.109349,19.7857625 C144.934814,19.7857625 145.57188,19.6447743 146.020638,19.3611734 C146.468672,19.0791069 146.693051,18.6633634 146.693051,18.1153872 C146.693051,17.8075962 146.62317,17.5586556 146.482685,17.3661283 C146.342199,17.1752257 146.144218,17.0165463 145.889735,16.8916247 C145.635885,16.7667933 145.332042,16.6624513 144.979653,16.5772447 C144.626541,16.4935724 144.236635,16.4016865 143.807676,16.3040238 C143.062398,16.1387553 142.496659,15.9734869 142.110459,15.8089406 C141.724893,15.6443943 141.419604,15.4607126 141.196671,15.2579857 C140.973739,15.0552589 140.803059,14.8173302 140.684632,14.5454632 C140.566204,14.2736865 140.507352,13.962285 140.507352,13.6097245 C140.507352,12.8031496 140.816348,12.1817007 141.434339,11.7453777 C142.052331,11.3083325 142.937371,11.090171 144.088737,11.090171 C145.159916,11.090171 145.979414,11.2532732 146.545967,11.5808314 C147.112428,11.9084798 147.510471,12.4667458 147.737742,13.2556295 L146.478978,13.4760475 C146.340663,12.9772637 146.07732,12.6151354 145.688861,12.3903848 C145.301124,12.1648219 144.762597,12.0524466 144.075448,12.0524466 C143.321401,12.0524466 142.745356,12.1773682 142.348037,12.4270309 C141.950809,12.6767838 141.752918,13.0484798 141.752918,13.5428409 C141.752918,13.8330309 141.829398,14.0724941 141.983173,14.2619525 C142.137671,14.4515012 142.359066,14.6116247 142.64971,14.742323 Z M133.741179,20.6481188 L131.291272,16.7380903 L128.352197,16.7380903 L128.352197,20.6481188 L127.073544,20.6481188 L127.073544,11.229715 L131.511944,11.229715 C132.574354,11.229715 133.394666,11.467734 133.972157,11.9422375 C134.550372,12.4168314 134.839569,13.077905 134.839569,13.9241045 C134.839569,14.6233587 134.634988,15.211772 134.226731,15.6884418 C133.818383,16.165924 133.254814,16.4663135 132.536024,16.5912352 L135.214016,20.6481188 L133.741179,20.6481188 L133.741179,20.6481188 Z M133.001777,15.2579857 C133.369625,14.9436057 133.554227,14.5028599 133.554227,13.9372827 C133.554227,13.3893064 133.367365,12.9713967 132.995178,12.6841853 C132.622177,12.3962518 132.085819,12.2530071 131.384658,12.2530071 L128.352197,12.2530071 L128.352197,15.7288789 L131.438447,15.7288789 C132.112307,15.7288789 132.633206,15.5716437 133.001777,15.2579857 L133.001777,15.2579857 Z M114.336378,11.229715 L121.493271,11.229715 L121.493271,12.2727743 L115.61503,12.2727743 L115.61503,15.2947221 L121.091522,15.2947221 L121.091522,16.3238812 L115.61503,16.3238812 L115.61503,19.6057815 L121.767642,19.6057815 L121.767642,20.6481188 L114.336378,20.6481188 L114.336378,11.229715 L114.336378,11.229715 Z M104.383155,20.6481188 L100.533999,11.229715 L101.879549,11.229715 L104.490554,17.8613017 L105.052586,19.5257197 L105.615432,17.8613017 L108.213147,11.229715 L109.558788,11.229715 L105.708908,20.6481188 L104.383155,20.6481188 L104.383155,20.6481188 Z M94.0363207,20.1867933 C93.3307294,20.5834917 92.498665,20.7817957 91.5393139,20.7817957 C90.5703802,20.7817957 89.7346997,20.5864703 89.0320916,20.1941948 C88.3287604,19.8019192 87.7916793,19.2348979 87.4216619,18.4929501 C87.050831,17.7510926 86.8662291,16.8850356 86.8662291,15.8955914 C86.8662291,14.3897625 87.2789164,13.2115819 88.1043814,12.3631259 C88.9298464,11.5147601 90.0796755,11.090171 91.5526031,11.090171 C92.5119542,11.090171 93.3440186,11.2804418 94.0495195,11.6617055 C94.7542972,12.0421568 95.2936384,12.596 95.666639,13.3225131 C96.038826,14.0489359 96.2256879,14.9068694 96.2256879,15.8955914 C96.2256879,16.8806128 96.0366563,17.7429691 95.6599492,18.4826603 C95.2825189,19.2223515 94.7410985,19.7901853 94.0363207,20.1867933 L94.0363207,20.1867933 Z M94.0392136,13.1351306 C93.4528632,12.4667458 92.623782,12.1325083 91.5526031,12.1325083 C90.4718415,12.1325083 89.637517,12.462323 89.0482737,13.1219525 C88.4596632,13.7815819 88.1646799,14.705677 88.1646799,15.8955914 C88.1646799,17.0767506 88.4626464,18.0140238 89.0585796,18.7066888 C89.6545127,19.3994442 90.4814241,19.7461378 91.5393139,19.7461378 C92.6281214,19.7461378 93.4638923,19.4111781 94.045813,18.7398147 C94.6285474,18.0698955 94.9198241,17.1216105 94.9198241,15.8955914 C94.9198241,14.724 94.6262873,13.8036057 94.0392136,13.1351306 L94.0392136,13.1351306 Z M76.123522,11.229715 L77.4021746,11.229715 L77.4021746,19.6057815 L82.1687356,19.6057815 L82.1687356,20.6481188 L76.123522,20.6481188 L76.123522,11.229715 L76.123522,11.229715 Z M63.7005944,12.6268694 L63.7336817,13.2754869 L63.7674923,14.392019 L63.7674923,20.6481188 L62.6294155,20.6481188 L62.6294155,11.229715 L64.1154514,11.229715 L69.2167728,19.3053919 C69.1630737,18.4313017 69.1365858,17.7988409 69.1365858,17.4065653 L69.1365858,11.229715 L70.2879517,11.229715 L70.2879517,20.6481188 L68.7481263,20.6481188 L63.7005944,12.6268694 L63.7005944,12.6268694 Z M52.6901152,20.7817957 C51.7035529,20.7817957 50.8537697,20.5864703 50.1394093,20.1941948 C49.4250489,19.8019192 48.879922,19.2370641 48.5024916,18.4995392 C48.1258749,17.7621045 47.9367529,16.8946033 47.9367529,15.8955914 C47.9367529,14.3677387 48.3472706,13.1844133 49.1690291,12.346247 C49.9900644,11.5088931 51.1436904,11.090171 52.6298167,11.090171 C53.6745077,11.090171 54.5227542,11.2657292 55.1738328,11.6175677 C55.8256347,11.9702185 56.3280916,12.5335392 56.6805709,13.3085226 L55.4622167,13.6699287 C55.1944446,13.1351306 54.8250601,12.7458337 54.354244,12.5005036 C53.8834279,12.2551734 53.2970774,12.1325083 52.596639,12.1325083 C51.5078316,12.1325083 50.675044,12.4608789 50.0997226,13.1189739 C49.523678,13.775715 49.2360173,14.7012542 49.2360173,15.8955914 C49.2360173,17.0855962 49.5413065,18.0243135 50.1526985,18.7133682 C50.7640904,19.4023325 51.6100768,19.7461378 52.6901152,19.7461378 C53.3066601,19.7461378 53.8811678,19.6520855 54.4145424,19.4655154 C54.9471938,19.2782233 55.3790464,19.0240475 55.7093771,18.7030784 L55.7093771,17.0055344 L52.8909895,17.0055344 L52.8909895,15.9360285 L56.8879542,15.9360285 L56.8879542,19.1848931 C56.3877573,19.6925226 55.7756421,20.0854299 55.0502526,20.3646081 C54.3248632,20.6429739 53.5383616,20.7817957 52.6901152,20.7817957 L52.6901152,20.7817957 Z M41.1117276,11.229715 L42.3903802,11.229715 L42.3903802,20.6481188 L41.1117276,20.6481188 L41.1117276,11.229715 L41.1117276,11.229715 Z M31.7278601,20.7817957 C29.4295579,20.7817957 28.0972062,19.9840665 27.730805,18.3886983 L28.9697709,18.1418337 C29.1125164,18.7075012 29.4155455,19.1232447 29.8798526,19.388342 C30.3440693,19.6535297 30.9759827,19.7857625 31.7749598,19.7857625 C32.6004248,19.7857625 33.237491,19.6447743 33.6863393,19.3611734 C34.134374,19.0791069 34.3587529,18.6633634 34.3587529,18.1153872 C34.3587529,17.8075962 34.2888718,17.5586556 34.148296,17.3661283 C34.0078105,17.1752257 33.8099195,17.0165463 33.5553461,16.8916247 C33.301496,16.7667933 32.9976533,16.6624513 32.6452644,16.5772447 C32.2921523,16.4935724 31.9022464,16.4016865 31.4733771,16.3040238 C30.7280991,16.1387553 30.1623604,15.9734869 29.7760706,15.8089406 C29.3905944,15.6443943 29.0852149,15.4607126 28.8623728,15.2579857 C28.6394402,15.0552589 28.4687604,14.8173302 28.3503331,14.5454632 C28.2318155,14.2736865 28.1729635,13.962285 28.1729635,13.6097245 C28.1729635,12.8031496 28.4819591,12.1817007 29.0999505,11.7453777 C29.7179418,11.3083325 30.602982,11.090171 31.754348,11.090171 C32.8255269,11.090171 33.6451158,11.2532732 34.2115777,11.5808314 C34.77813,11.9084798 35.1760817,12.4667458 35.403444,13.2556295 L34.1446799,13.4760475 C34.0063641,12.9772637 33.7429313,12.6151354 33.3544718,12.3903848 C32.966826,12.1648219 32.4282985,12.0524466 31.7411492,12.0524466 C30.9870118,12.0524466 30.4109672,12.1773682 30.0137387,12.4270309 C29.6164198,12.6767838 29.4185288,13.0484798 29.4185288,13.5428409 C29.4185288,13.8330309 29.4950093,14.0724941 29.6487839,14.2619525 C29.8032817,14.4515012 30.0247678,14.6116247 30.3153214,14.742323 C30.6052421,14.8745558 31.1834563,15.0362138 32.0494217,15.2272067 C32.339252,15.2947221 32.6283591,15.3623278 32.9160198,15.4313777 C33.2044037,15.5004276 33.4795889,15.5826556 33.7429313,15.678152 C34.0063641,15.7743705 34.2528012,15.8868361 34.4830563,16.0160903 C34.7125882,16.1453444 34.9120161,16.3040238 35.0819728,16.4905938 C35.251839,16.677886 35.3842786,16.8990261 35.4806477,17.1523895 C35.5762935,17.4065653 35.6241164,17.7055107 35.6241164,18.0478717 C35.6241164,18.9175392 35.2842031,19.5903468 34.6030204,20.0671069 C33.9224706,20.543867 32.9638427,20.7817957 31.7278601,20.7817957 L31.7278601,20.7817957 Z M15.4954625,11.229715 L22.6523554,11.229715 L22.6523554,12.2727743 L16.7741152,12.2727743 L16.7741152,15.2947221 L22.2506068,15.2947221 L22.2506068,16.3238812 L16.7741152,16.3238812 L16.7741152,19.6057815 L22.9267269,19.6057815 L22.9267269,20.6481188 L15.4954625,20.6481188 L15.4954625,11.229715 L15.4954625,11.229715 Z M7.93908111,20.0671069 C7.24316285,20.4542375 6.43975604,20.6481188 5.5296743,20.6481188 L2.00126563,20.6481188 L2.00126563,11.229715 L5.1206935,11.229715 C6.71855728,11.229715 7.95164706,11.630114 8.81978204,12.4300095 C9.68782663,13.229905 10.1219393,14.3677387 10.1219393,15.8426983 C10.1219393,16.8138195 9.93209412,17.6644418 9.55321734,18.3923088 C9.17361734,19.1209881 8.635813,19.6792542 7.93908111,20.0671069 L7.93908111,20.0671069 Z M7.87579938,13.171867 C7.23502663,12.5592637 6.30803963,12.2530071 5.09420557,12.2530071 L3.27991827,12.2530071 L3.27991827,19.625639 L5.38186625,19.625639 C6.07407802,19.625639 6.68176347,19.474361 7.20636904,19.171715 C7.73088421,18.8683468 8.13335604,18.4313017 8.41514056,17.8613017 C8.69611146,17.2912114 8.83668731,16.6176817 8.83668731,15.8426983 C8.83668731,14.6748076 8.51666254,13.7845606 7.87579938,13.171867 L7.87579938,13.171867 Z" id="Shape" sketch:type="MSShapeGroup"></path>
        </g>
    </g>
</svg>

<svg width="150" height="60" xmlns="http://www.w3.org/2000/svg"><g id="Page-1" stroke="none" stroke-width="1" fill="none" fill-rule="evenodd"><g id="logo2_dark" fill-opacity=".3" fill="#000"><path d="M134.975 48.855l-5.048-8.021.033.648.034 1.117v6.256h-1.138v-9.419h1.486l5.102 8.076a34.822 34.822 0 01-.08-1.899v-6.177h1.15v9.419h-1.54zm-18.857-9.419h7.157v1.043h-5.878v3.022h5.476v1.03h-5.476v3.281h6.153v1.043h-7.432v-9.419zm-9.953 9.419l-3.85-9.419h1.346l2.611 6.632.563 1.664.562-1.664 2.598-6.632h1.346l-3.85 9.419h-1.326zm-8.895-2.753h-4.298l-1.085 2.753h-1.325l3.85-9.419h1.453l3.788 9.419h-1.305l-1.078-2.753zm-1.593-4.105c-.125-.307-.25-.655-.375-1.043l-.18-.555-.06.188c-.113.37-.278.844-.497 1.423l-1.205 3.096h3.529l-1.212-3.109zm-16.755-2.56h7.157v1.042h-5.878v3.022h5.476v1.03h-5.476v3.281h6.152v1.043h-7.43v-9.419zm-7.114 5.053h-5.101v4.365h-1.279v-9.419h1.279v3.985h5.101v-3.985h1.279v9.419h-1.279V44.49zm-12.837 4.365l-3.77-4.546-1.232.936v3.61h-1.278v-9.419h1.278v4.72l4.546-4.72h1.506l-4.017 4.092 4.553 5.327H58.97zm-19.018-9.419h7.157v1.043h-5.878v3.022h5.476v1.03h-5.476v3.281h6.152v1.043h-7.431v-9.419zm-12.738 0h7.157v1.043h-5.878v3.022h5.476v1.03h-5.476v3.281h6.152v1.043h-7.43v-9.419zm-9.94 9.552c-.986 0-1.835-.195-2.55-.587a3.928 3.928 0 01-1.637-1.695c-.376-.737-.566-1.605-.566-2.604 0-1.528.411-2.71 1.233-3.55.82-.836 1.974-1.255 3.46-1.255 1.045 0 1.893.175 2.545.527.651.353 1.154.916 1.506 1.691l-1.218.362c-.268-.535-.637-.925-1.108-1.17-.47-.245-1.057-.368-1.758-.368-1.088 0-1.921.329-2.497.987-.576.656-.863 1.582-.863 2.776 0 1.19.305 2.129.916 2.818.612.689 1.458 1.033 2.538 1.033.616 0 1.19-.094 1.724-.28.533-.188.965-.442 1.295-.763v-1.698h-2.818v-1.07h3.997v3.25c-.5.507-1.113.9-1.838 1.18a6.532 6.532 0 01-2.36.416zm-10.3-19.85h135.604v1.804H6.975v-1.805zM142.65 14.741c.29.133.868.294 1.734.485.29.068.579.135.866.204.289.07.564.152.827.247.264.096.51.209.74.338.23.13.43.288.6.475.17.187.302.408.398.661.096.255.144.554.144.896 0 .87-.34 1.542-1.022 2.02-.68.476-1.639.714-2.875.714-2.298 0-3.63-.798-3.997-2.393l1.24-.247c.142.566.445.981.91 1.246.463.266 1.095.398 1.894.398.826 0 1.463-.141 1.912-.425.448-.282.672-.698.672-1.246 0-.307-.07-.556-.21-.749-.14-.19-.339-.35-.593-.474a4.434 4.434 0 00-.91-.315c-.353-.083-.743-.175-1.172-.273-.746-.165-1.311-.33-1.698-.495-.385-.165-.69-.348-.913-.551a2.073 2.073 0 01-.512-.713 2.321 2.321 0 01-.178-.935c0-.807.31-1.428.927-1.865.618-.437 1.503-.655 2.655-.655 1.07 0 1.89.163 2.457.49.566.328.964.887 1.192 1.676l-1.259.22c-.138-.499-.402-.86-.79-1.086-.388-.225-.926-.338-1.614-.338-.754 0-1.33.125-1.727.375s-.595.621-.595 1.116c0 .29.076.53.23.719.155.19.376.35.667.48zm-8.909 5.906l-2.45-3.91h-2.939v3.91h-1.278V11.23h4.438c1.062 0 1.883.238 2.46.712.578.475.868 1.136.868 1.982 0 .7-.205 1.288-.613 1.764-.409.478-.972.778-1.691.903l2.678 4.057h-1.473zm-.74-5.39c.369-.314.553-.755.553-1.32 0-.549-.187-.967-.559-1.254-.373-.288-.91-.431-1.61-.431h-3.033v3.476h3.086c.674 0 1.195-.157 1.564-.471zm-18.665-4.028h7.157v1.043h-5.878v3.022h5.477v1.029h-5.477v3.282h6.153v1.042h-7.432V11.23zm-9.953 9.418l-3.849-9.418h1.346l2.61 6.631.563 1.665.562-1.665 2.598-6.631h1.346l-3.85 9.418h-1.326zm-10.347-.461c-.705.396-1.537.595-2.497.595-.969 0-1.804-.196-2.507-.588a3.882 3.882 0 01-1.61-1.701c-.371-.742-.556-1.608-.556-2.597 0-1.506.413-2.684 1.238-3.533.826-.848 1.976-1.273 3.449-1.273.959 0 1.791.19 2.497.572a3.83 3.83 0 011.617 1.66c.372.727.559 1.585.559 2.574 0 .985-.19 1.847-.566 2.587a3.988 3.988 0 01-1.624 1.704zm.003-7.052c-.586-.668-1.415-1.002-2.486-1.002-1.081 0-1.915.33-2.505.989-.588.66-.883 1.584-.883 2.774 0 1.18.298 2.118.894 2.81.596.693 1.422 1.04 2.48 1.04 1.09 0 1.925-.335 2.507-1.006.583-.67.874-1.618.874-2.844 0-1.172-.294-2.092-.88-2.76zM76.124 11.23h1.278v8.376h4.767v1.042h-6.045V11.23zM63.7 12.627l.033.648.033 1.117v6.256H62.63V11.23h1.486l5.102 8.075a34.822 34.822 0 01-.08-1.898V11.23h1.151v9.418h-1.54l-5.047-8.021zm-11.01 8.155c-.987 0-1.837-.196-2.552-.588a3.928 3.928 0 01-1.637-1.694c-.376-.738-.565-1.605-.565-2.604 0-1.528.41-2.712 1.232-3.55.821-.837 1.975-1.256 3.46-1.256 1.046 0 1.894.176 2.545.528.652.352 1.154.916 1.507 1.69l-1.219.362c-.268-.535-.637-.924-1.108-1.17-.47-.245-1.057-.367-1.757-.367-1.09 0-1.922.328-2.497.986-.576.657-.864 1.582-.864 2.777 0 1.19.305 2.128.917 2.817.611.69 1.457 1.033 2.537 1.033.617 0 1.191-.094 1.725-.28.532-.188.964-.442 1.294-.763v-1.697H52.89v-1.07h3.997v3.249c-.5.508-1.112.9-1.838 1.18a6.532 6.532 0 01-2.36.417zM41.11 11.23h1.28v9.418h-1.28V11.23zm-9.383 9.552c-2.298 0-3.63-.798-3.997-2.393l1.239-.247c.143.566.446.981.91 1.246.464.266 1.096.398 1.895.398.825 0 1.462-.141 1.911-.425.448-.282.673-.698.673-1.246 0-.307-.07-.556-.21-.749-.141-.19-.34-.35-.594-.474a4.434 4.434 0 00-.91-.315c-.353-.083-.743-.175-1.172-.273-.745-.165-1.31-.33-1.697-.495-.385-.165-.69-.348-.914-.551a2.073 2.073 0 01-.512-.713 2.32 2.32 0 01-.177-.935c0-.807.309-1.428.927-1.865.618-.437 1.503-.655 2.654-.655 1.072 0 1.891.163 2.458.49.566.328.964.887 1.191 1.676l-1.258.22c-.139-.499-.402-.86-.79-1.086-.388-.225-.927-.338-1.614-.338-.754 0-1.33.125-1.727.375-.398.25-.595.621-.595 1.116 0 .29.076.53.23.719.154.19.376.35.666.48.29.133.868.294 1.734.485.29.068.58.135.867.204.288.07.564.152.827.247.263.096.51.209.74.338.23.13.429.288.599.475.17.187.302.408.399.661.095.255.143.554.143.896 0 .87-.34 1.542-1.021 2.02-.68.476-1.64.714-2.875.714zM15.495 11.23h7.157v1.043h-5.878v3.022h5.477v1.029h-5.477v3.282h6.153v1.042h-7.432V11.23zM7.94 20.067c-.696.387-1.5.581-2.41.581H2.002V11.23h3.12c1.598 0 2.83.4 3.699 1.2.868.8 1.302 1.938 1.302 3.413 0 .97-.19 1.821-.569 2.55a3.967 3.967 0 01-1.614 1.674zm-.063-6.895c-.641-.613-1.568-.919-2.782-.919H3.28v7.373h2.102c.692 0 1.3-.152 1.824-.454.525-.304.927-.74 1.21-1.31.28-.57.42-1.244.42-2.02 0-1.167-.32-2.057-.96-2.67z" id="Shape"/></g></g></svg>
